X:1
T:Title
%%score { ( 1 3 ) | 2 }
L:1/8
M:6/8
K:C
V:1 treble nm="Grand Piano"
V:3 treble 
V:2 bass 
V:1
 z3 z2[Q:1/4=100] [EG] | [Ec]2 [Ec] [Fc]2 [FA] | [EG]3 [CE]2 [EG] | [Ec]2 [Ec] [Fc]2 [FA] | %4
 [EG]3- [EG]2 G | d2 d d2 c | e3 d2 d | [^Fd]2 [FA] [Fd]2 [Ac] |[M:5/8] B-B- B3 |[M:1/8] G | %10
[M:3/4] [Ge]2 [Ge]d cA | [Ec]3 [EG]2 [EG] | [Gc]2 [Gc] c2 A | d4- dG | z2 z c z2 | %15
 [Af]3 [CFA]2 [FAd] | [EGc]2 [DFB] [CEc]2 [Ad] | [^Ge]3 [Af]3 | [Ae]2 [Ad] [Gc]2 [FB] | %19
[M:5/8] [Ec]-[Ec]- [Ec]3 |] %20
V:2
 z3 z2 [C,C] | [C,G,]2 [C,G,] [F,A,]2 [F,C] | [C,C]3 [C,G,]2 [C,C] | [C,G,]2 [C,G,] [F,A,]2 [F,C] | %4
 [C,C]3- [C,C]2 [G,B,] | [G,B,F]2 [G,B,F] [G,B,F]2 [G,CE] | [G,CG]3 [G,B,G]2 [G,B,G] | %7
 [D,A,]2 [D,D] [D,A,]2 [D,D] |[M:5/8][K:treble] [G,DG]-[G,DG]- [G,DG]3 |[M:1/8][K:bass] [G,B,] | %10
[M:3/4] [C,C]2 [C,C] [F,C]2 [F,CF] | [C,C]3 [C,C]2 [C,C] | [E,C]2 [E,C][K:treble] [A,CE]2 [A,CE] | %13
 [G,B,G]4- [G,B,G][G,B,F] | [C,C]2 [C,C][E,C] [G,B,][CG] | [F,C]3 F,2 D, | G,2 ^G, A,2 [F,A,] | %17
 [E,B,]3 [D,D]3 | [E,^C]2 [F,D] [G,E]2 [G,D] |[M:5/8] [C,C]-[C,C]- [C,C]3 |] %20
V:3
 x6 | x6 | x6 | x6 | x6 | x6 | x6 | x6 |[M:5/8] x5 |[M:1/8] x |[M:3/4] z2 z .A3 | x6 | x6 | x6 | %14
 [Ec]2 [Ec]G- [Gd]e | x6 | x6 | x6 | x6 |[M:5/8] x5 |] %20

